X:741
T:Reel 741
M:4/4
K:Gmaj
L:1/8
GE|DEGA BGAF|GFGE D2G2|BABc dBGB|dcBA G2 (3ABc |dedB d2G2|GABG A2E2|GEGA BGAc|dBAB G2| (3def |gfgd edBd|gefd edB2|gfge dgB2|cABG AGE2|g2ge d2Bd|gage e2d2|GABc dBGB|c2BG A2|
